launcher/android/assets/skins/day/svg/mapVirtual0.svg

<svg enable-background="new 0 0 58.42 61.00" height="61" viewBox="0 0 58.42 61" width="58.4218" xmlns="http://www.w3.org/2000/svg" xmlns:xlink="http://www.w3.org/1999/xlink"><linearGradient id="a"><stop offset="0" stop-color="#737373"/><stop offset="1" stop-color="#fff"/></linearGradient><linearGradient id="b" gradientUnits="objectBoundingBox" x1="-.00000142792" x2="1" xlink:href="#a" y1=".500003" y2=".500003"/><linearGradient id="c" gradientUnits="objectBoundingBox" x1="-.00000117902" x2=".999999" xlink:href="#a" y1=".500028" y2=".500028"/><linearGradient id="d" gradientUnits="objectBoundingBox" x1="-.000000753739" x2=".999999" xlink:href="#a" y1=".500034" y2=".500034"/><g stroke-linejoin="bevel"><g stroke="#000"><path d="m56.8672 17.2578-.2344 6.4453-1.4063 4.1016-1.875 3.5156-1.7578 2.8125-2.3437 2.461-1.7579 1.0546-1.6406.3516-.9375-2.2266v-3.0468l.1172-2.461 1.1719-2.5781 2.8125-2.1094 2.8125-2.2265 2.8125-2.5782z" fill="#fff"/><path d="m .5 17.9609 4.10156 4.5704.93746.5859 2.69531 2.8125 2.10937 1.5234 2.2266 1.0547 1.5234 2.3438 1.1719 3.2812.5859 3.1641.2344 2.5781-1.0547.9375-2.1094-1.1719-2.92966-2.9297-3.39844-3.6328-1.99218-3.164-1.75782-3.1641-1.05468-3.6328-.58594-2.8125z" fill="#fff"/><path d="m12.1016 27.6875-.4688-6.5625v-4.9219l.7031-4.4531 2.3437-3.86719 1.9922-2.46093 2.9297-2.34375 3.3985-1.99219 3.75-.58594 6.5625.351563 3.9843 1.054687 3.3985 1.52344 3.0468 1.99219 2.2266 2.10937 1.7578 3.39845.9375 3.5156.7031 3.2813-.8203 4.2187-1.5234 3.3985-1.5234 2.8125-.2344 3.164.2344 3.75.5859 2.6953 1.7578 3.0469 2.4609 2.4609 1.875 1.875 2.9297 1.5235 2.3438 1.4062.4687 1.1719-.8203 1.4063-1.9922 2.5781-2.3437 2.3437-2.8125 1.7578-2.2266 1.1719-2.6953.7031-3.1641.8204h-4.1015-3.8672l-2.5781-.7032-2.2266-1.0547-2.1094-1.6406-1.7578-1.1719-1.6406 1.4063-1.875 1.5234-1.4063 1.1719-2.2265.4688-4.1016.4687-2.9297-.2344-2.46091-1.875.46875-1.1718 2.34376-1.5235 2.2266-2.1094 1.7578-2.9296.4687-3.8672.2344-3.1641-.1172-4.2187-.5859-2.9297-1.0547-2.9297-.9375-2.3438z" fill="#fff"/><path d="m19.7188 27.8047 3.3984 2.9297 2.2265.3515 2.8125.2344 3.5156-.4687 2.6953-.4688 2.2266-1.0547 1.9922-1.289-.3516 1.0547-2.1093 2.9296-2.461 3.8672-2.1094 2.8125-2.1093 2.5782-.9375.5859-2.2266-2.3438-1.6406-2.8125-1.875-2.9296-1.6406-2.9297-1.2891-2.2266z" fill="#f00"/></g><path d="m20.8906 10.3438 3.0469 2.9296 1.875 1.4063.8203 2.3437.1172 7.7344-4.1016-.3515-.1172-6.0938.1172-4.1016z" stroke="#2d2d2d"/><path d="m36.8473 10.6914-3.0469 2.9297-1.875 1.4062-.8203 2.3438-.1172 7.7344 4.1016-.3516.1172-6.0937-.1172-4.1016z" stroke="#2d2d2d"/><path d="m24.4063 2.60938 7.7343 1.52343 4.2187 1.875 3.3985 2.57813 2.8125 3.51566.4687 4.5703-.1172 6.2109-.9375 5.9766s-.2343 4.5703-.3515 5.1562c-.1172.586-.3516 3.0469-.3516 3.0469l1.1719 3.2813 1.4062 2.8125 2.6953 2.5781 3.1641 2.1094 2.9297 1.4062 2.5781.5859 1.2378-1.6772-4.1308-2.2852-2.6807-2.417-2.6807-2.9443-2.0581-4.7388.2344-5.5078.8203-3.5156 2.0142-5.8374.5639-4.7095-2.4975-7.41941-2.7759-2.89306-5.2222-3.17139-6.145-1.39893-4.6875-.11718z" fill="url(#b)" stroke-width=".2"/><path d="m12.1491 55.9407-1.626 1.1645-1.29634.9229 1.79074 1.4465 1.5821.4102 2.4023.0586 1.9922-.0586 2.7136-.802 1.5051-1.1902.9559-.8972-2.2449.3112-2.2852.7618-2.2265-.2344-1.6993-1.0547-.9924-1.2122z" fill="url(#c)" stroke-width=".2"/><path d="m27.1015 55.9517 2.9773 2.0324 2.7905.9888 1.9556.3076 6.5442.3113 2.5195-.5859 3.4571-1.3477-1.3477-.5859-1.9922.3515-2.8125.8203-3.1055-.0586-4.8046-1.1718-2.6954-.8789z" fill="url(#d)" stroke-width=".2"/></g></svg>

﻿<?xml version="1.0" encoding="utf-8"?>
<!DOCTYPE svg PUBLIC "-//W3C//DTD SVG 1.1//EN" "http://www.w3.org/Graphics/SVG/1.1/DTD/svg11.dtd">
<svg xmlns="http://www.w3.org/2000/svg" xmlns:xlink="http://www.w3.org/1999/xlink" version="1.1" baseProfile="full" width="58.4218" height="61" viewBox="0 0 58.42 61.00" enable-background="new 0 0 58.42 61.00" xml:space="preserve">
	<g>
		<path fill="#FFFFFF" fill-opacity="1" stroke-linejoin="bevel" stroke="#000000" stroke-opacity="1" d="M 56.8672,17.2578L 56.6328,23.7031L 55.2265,27.8047L 53.3515,31.3203L 51.5937,34.1328L 49.25,36.5938L 47.4921,37.6484L 45.8515,38L 44.914,35.7734L 44.914,32.7266L 45.0312,30.2656L 46.2031,27.6875L 49.0156,25.5781L 51.8281,23.3516L 54.6406,20.7734L 56.8672,17.2578 Z "/>
		<path fill="#FFFFFF" fill-opacity="1" stroke-linejoin="bevel" stroke="#000000" stroke-opacity="1" d="M 0.5,17.9609L 4.60156,22.5313L 5.53902,23.1172L 8.23433,25.9297L 10.3437,27.4531L 12.5703,28.5078L 14.0937,30.8516L 15.2656,34.1328L 15.8515,37.2969L 16.0859,39.875L 15.0312,40.8125L 12.9218,39.6406L 9.99214,36.7109L 6.5937,33.0781L 4.60152,29.9141L 2.8437,26.75L 1.78902,23.1172L 1.20308,20.3047L 0.5,17.9609 Z "/>
		<path fill="#FFFFFF" fill-opacity="1" stroke-linejoin="bevel" stroke="#000000" stroke-opacity="1" d="M 12.1016,27.6875L 11.6328,21.125L 11.6328,16.2031L 12.3359,11.75L 14.6796,7.88281L 16.6718,5.42188L 19.6015,3.07813L 23,1.08594L 26.75,0.5L 33.3125,0.851563L 37.2968,1.90625L 40.6953,3.42969L 43.7421,5.42188L 45.9687,7.53125L 47.7265,10.9297L 48.664,14.4453L 49.3671,17.7266L 48.5468,21.9453L 47.0234,25.3438L 45.5,28.1563L 45.2656,31.3203L 45.5,35.0703L 46.0859,37.7656L 47.8437,40.8125L 50.3046,43.2734L 52.1796,45.1484L 55.1093,46.6719L 57.4531,48.0781L 57.9218,49.25L 57.1015,50.6563L 55.1093,53.2344L 52.7656,55.5781L 49.9531,57.3359L 47.7265,58.5078L 45.0312,59.2109L 41.8671,60.0313L 37.7656,60.0313L 33.8984,60.0313L 31.3203,59.3281L 29.0937,58.2734L 26.9843,56.6328L 25.2265,55.4609L 23.5859,56.8672L 21.7109,58.3906L 20.3046,59.5625L 18.0781,60.0313L 13.9765,60.5L 11.0468,60.2656L 8.58589,58.3906L 9.05464,57.2188L 11.3984,55.6953L 13.625,53.5859L 15.3828,50.6563L 15.8515,46.7891L 16.0859,43.625L 15.9687,39.4063L 15.3828,36.4766L 14.3281,33.5469L 13.3906,31.2031L 12.1016,27.6875 Z "/>
		<path fill="#FF0000" fill-opacity="1" stroke-linejoin="bevel" stroke="#000000" stroke-opacity="1" d="M 19.7188,27.8047L 23.1172,30.7344L 25.3437,31.0859L 28.1562,31.3203L 31.6718,30.8516L 34.3671,30.3828L 36.5937,29.3281L 38.5859,28.0391L 38.2343,29.0938L 36.125,32.0234L 33.664,35.8906L 31.5546,38.7031L 29.4453,41.2813L 28.5078,41.8672L 26.2812,39.5234L 24.6406,36.7109L 22.7656,33.7813L 21.125,30.8516L 19.8359,28.625L 19.7188,27.8047 Z "/>
		<path fill="#000000" fill-opacity="1" stroke-linejoin="bevel" stroke="#2D2D2D" stroke-opacity="1" d="M 20.8906,10.3438L 23.9375,13.2734L 25.8125,14.6797L 26.6328,17.0234L 26.75,24.7578L 22.6484,24.4063L 22.5312,18.3125L 22.6484,14.2109L 20.8906,10.3438 Z "/>
		<path fill="#000000" fill-opacity="1" stroke-linejoin="bevel" stroke="#2D2D2D" stroke-opacity="1" d="M 36.8473,10.6914L 33.8004,13.6211L 31.9254,15.0273L 31.1051,17.3711L 30.9879,25.1055L 35.0895,24.7539L 35.2067,18.6602L 35.0895,14.5586L 36.8473,10.6914 Z "/>
		<linearGradient id="SVGID_Fill1_" gradientUnits="objectBoundingBox" x1="-1.42792e-006" y1="0.500003" x2="1" y2="0.500003">
			<stop offset="0" stop-color="#737373" stop-opacity="1"/>
			<stop offset="1" stop-color="#FFFFFF" stop-opacity="1"/>
		</linearGradient>
		<path fill="url(#SVGID_Fill1_)" stroke-width="0.2" stroke-linejoin="bevel" d="M 24.4063,2.60938L 32.1406,4.13281L 36.3593,6.00781L 39.7578,8.58594L 42.5703,12.1016L 43.039,16.6719L 42.9218,22.8828L 41.9843,28.8594C 41.9843,28.8594 41.75,33.4297 41.6328,34.0156C 41.5156,34.6016 41.2812,37.0625 41.2812,37.0625L 42.4531,40.3438L 43.8593,43.1563L 46.5546,45.7344L 49.7187,47.8438L 52.6484,49.25L 55.2265,49.8359L 56.4643,48.1587L 52.3335,45.8735L 49.6528,43.4565L 46.9721,40.5122L 44.914,35.7734L 45.1484,30.2656L 45.9687,26.75L 47.9829,20.9126L 48.5468,16.2031L 46.0493,8.78369L 43.2734,5.89063L 38.0512,2.71924L 31.9062,1.32031L 27.2187,1.20313L 24.4063,2.60938 Z "/>
		<linearGradient id="SVGID_Fill2_" gradientUnits="objectBoundingBox" x1="-1.17902e-006" y1="0.500028" x2="0.999999" y2="0.500028">
			<stop offset="0" stop-color="#737373" stop-opacity="1"/>
			<stop offset="1" stop-color="#FFFFFF" stop-opacity="1"/>
		</linearGradient>
		<path fill="url(#SVGID_Fill2_)" stroke-width="0.2" stroke-linejoin="bevel" d="M 12.1491,55.9407L 10.5231,57.1052L 9.22676,58.0281L 11.0175,59.4746L 12.5996,59.8848L 15.0019,59.9434L 16.9941,59.8848L 19.7077,59.0828L 21.2128,57.8926L 22.1687,56.9954L 19.9238,57.3066L 17.6386,58.0684L 15.4121,57.834L 13.7128,56.7793L 12.7204,55.5671L 12.1491,55.9407 Z "/>
		<linearGradient id="SVGID_Fill3_" gradientUnits="objectBoundingBox" x1="-7.53739e-007" y1="0.500034" x2="0.999999" y2="0.500034">
			<stop offset="0" stop-color="#737373" stop-opacity="1"/>
			<stop offset="1" stop-color="#FFFFFF" stop-opacity="1"/>
		</linearGradient>
		<path fill="url(#SVGID_Fill3_)" stroke-width="0.2" stroke-linejoin="bevel" d="M 27.1015,55.9517L 30.0788,57.9841L 32.8693,58.9729L 34.8249,59.2805L 41.3691,59.5918L 43.8886,59.0059L 47.3457,57.6582L 45.998,57.0723L 44.0058,57.4238L 41.1933,58.2441L 38.0878,58.1855L 33.2832,57.0137L 30.5878,56.1348L 27.1015,55.9517 Z "/>
	</g>
</svg>
